X: 21765
T: King Of The Foreigners
R: polka
M: 2/4
K: Amajor
|:E3/2F/ AB|A3B|ce B3/2c/|BA F2|
EF AB|A2 AB|ce BA|1 f2 fe:|2 f2fg||
|:a3b|a3c/e/|fe c3/2e/|fe ce|
a3b|a3c/e/|fe c2|1 BA Ae:|2 BA AF||

